X:4382
T:Morpeth Rant
O:england
M:4/4
L:1/8
C:Trad
R:Rant
K:D
A | d2AG FDFA | BGBd cAce | f2fd gfed | c2d2e3 A | d2 AG FDFA | BGBd cAc
e | f2fd gfed | A2d2d2 :||:A | dfaf dfaf | gfef  g2 ef | gfed cABc | def
g f3 fe | dfaf dfaf | gfef g2 ef | gfed cABc | d2 f2 d3 :|


